X: 136
T:Dusark's Fancy. WM.136
M:2/4
L:1/8
Q:220
S:Wm.Mittell's MS,New Romney,Kent,1799
R:Cotillion
O:England
A:Kent
N:
D:
H:
Z:vmp.Chris Partington
W:
K:G
BGAF|GB/d/ gz|fdce|dB/G/ ez|dBAc|BG/E/ Az|FDE^C|DF/A/d2:|!
|:BGAF|GB/d/ gz|fdce|dB/G/ ez|dBAc|BGce|dcBA|G2z2:|]
